X: 149
T: Credo Sex vocum
N: Derived from Rue1034-Credo_Sex_vocum.krn
C: Pierre de la Rue
%%abc-version 2.0
%%abcx-abcm2ps-target-version 5.9.1 (29 Sep 2008)
%%abc-creator hum2abc beta
%%abcx-conversion-date 2019/02/17 08:01:15
%%abc-edited-by Jesse Rodin
%%abc-edited-by Chris Gage 07-02-2013
%%abcx-initial-encoding-date 2013/07/31/
%%humdrum-veritas 462765915
%%humdrum-veritas-data 1408221269
%%linebreak <none>
%%barnumbers 0
L: 1/4
M: 4/2
Q: 1/2=120
V: 1 clef=treble
V: 2 clef=treble
V: 3 clef=treble-8
V: 4 clef=bass
V: 5 clef=bass
V: 6 clef=bass
K: C
[V:1] z8 | 
[V:2] E4E4 | 
[V:3] z4B4 | 
[V:4] z8 | 
[V:5] E,6D,C, | 
[V:6] z8 | 
[V:1] z8 | 
[V:2] G2A4G2 | 
[V:3] B2c4c2- | 
[V:4] z8 | 
[V:5] B,,2A,,2C,3D, | 
[V:6] z8 | 
[V:1] z4B4 | 
[V:2] E2G3FED | 
[V:3] c2B3GB2 | 
[V:4] z8 | 
[V:5] E,8- | 
[V:6] E,,4G,,2G,,2 | 
[V:1] c4c2B2- | 
[V:2] C2C2E4 | 
[V:3] A4G4 | 
[V:4] z4E,4 | 
[V:5] E,4z4 | 
[V:6] A,,4E,,4 | 
[V:1] BGB2A4 | 
[V:2] z8 | 
[V:3] z8 | 
[V:4] G,2G,2A,4 | 
[V:5] z8 | 
[V:6] z8 | 
[V:1] G4z4 | 
[V:2] E3FG2G2 | 
[V:3] z2c2B2B2 | 
[V:4] E,8 | 
[V:5] G,4G,2G,2 | 
[V:6] E,,4E,,2E,,2 | 
[V:1] z8 | 
[V:2] A4G3F | 
[V:3] A2A2c2B2 | 
[V:4] z8 | 
[V:5] F,2D,2E,4- | 
[V:6] F,,2F,,2E,,2E,,2 | 
[V:1] G3AB2B2 | 
[V:2] E8 | 
[V:3] G4z4 | 
[V:4] E,3F,G,2G,2 | 
[V:5] E,2D,C,B,,2B,,2 | 
[V:6] E,,8 | 
[V:1] c4B2A2 | 
[V:2] z8 | 
[V:3] z8 | 
[V:4] A,4G,2F,2 | 
[V:5] A,,4z4 | 
[V:6] z8 | 
[V:1] G4z2B2 | 
[V:2] E4G4 | 
[V:3] z4B3c | 
[V:4] E,8 | 
[V:5] B,,6G,,2 | 
[V:6] E,,4E,,2E,,2 | 
[V:1] A2A2c2B2- | 
[V:2] F2D2G4- | 
[V:3] d2d2e4 | 
[V:4] z8 | 
[V:5] A,,4G,,3A,, | 
[V:6] F,,4E,,4 | 
[V:1] B2A4^G2 | 
[V:2] G2F2E4 | 
[V:3] d3cB4 | 
[V:4] z4B,4 | 
[V:5] B,,2C,2D,2E,2 | 
[V:6] z8 | 
[V:1] A4z4 | 
[V:2] z8 | 
[V:3] A4z4 | 
[V:4] C4B,2B,2- | 
[V:5] A,,2E,4E,2 | 
[V:6] A,,2A,,2G,,2E,,2 | 
[V:1] z8 | 
[V:2] z8 | 
[V:3] z8 | 
[V:4] B,2A,2A,2^G,2 | 
[V:5] D,2C,2B,,2B,,2 | 
[V:6] G,,2A,,2E,,4 | 
[V:1] z2A4A2 | 
[V:2] z2F4F2 | 
[V:3] z2c4c2 | 
[V:4] A,4A,2A,2 | 
[V:5] A,,4A,,2A,,2 | 
[V:6] z2F,,4F,,2 | 
[V:1] A2A2G3F | 
[V:2] E2D2E2E2 | 
[V:3] c2d2G3A | 
[V:4] A,2A,2B,2B,2 | 
[V:5] C,2A,,2E,4 | 
[V:6] A,,2F,,2E,,2E,,2 | 
[V:1] E2G2E2G2- | 
[V:2] G2E2G4 | 
[V:3] B2B2B4- | 
[V:4] G,4G,2E,2- | 
[V:5] E,4B,,4 | 
[V:6] E,,2E,,2E,,4- | 
[V:1] GAB2E4 | 
[V:2] E2G3AB2 | 
[V:3] B8 | 
[V:4] E,2E,2G,2E,2 | 
[V:5] B,,4E,4 | 
[V:6] E,,8 | 
[V:1] z4z2B2 | 
[V:2] E2G2E2G2- | 
[V:3] z8 | 
[V:4] G,2E,2G,4- | 
[V:5] z8 | 
[V:6] z8 | 
[V:1] B2B2A4 | 
[V:2] GFE4D2 | 
[V:3] z8 | 
[V:4] G,4F,4 | 
[V:5] z8 | 
[V:6] z8 | 
[V:1] G3AB2c2 | 
[V:2] E4z4 | 
[V:3] z2e2e2c2 | 
[V:4] E,4z4 | 
[V:5] E,3F,G,2A,2 | 
[V:6] z8 | 
[V:1] BAGFE3F | 
[V:2] z8 | 
[V:3] d4c4 | 
[V:4] z4z2C2 | 
[V:5] G,4C,3D, | 
[V:6] z8 | 
[V:1] G2A4^G2 | 
[V:2] z8 | 
[V:3] z4z2B2 | 
[V:4] C2A,2B,2E,2 | 
[V:5] E,2F,2E,4 | 
[V:6] z4z2E,,2 | 
[V:1] A4z4 | 
[V:2] z8 | 
[V:3] A2c4B2 | 
[V:4] C,2F,3E,E,2- | 
[V:5] z8 | 
[V:6] F,,2A,,4G,,2 | 
[V:1] z4z2G2 | 
[V:2] z4E2E2 | 
[V:3] A4G4 | 
[V:4] E,2D,2E,4 | 
[V:5] z4z2E,2 | 
[V:6] F,,4E,,4 | 
[V:1] A2c4B2 | 
[V:2] C3D/E/FEE2- | 
[V:3] z8 | 
[V:4] z8 | 
[V:5] F,2A,4G,2 | 
[V:6] z8 | 
[V:1] A4G4 | 
[V:2] E2D2E4 | 
[V:3] z4z2G2 | 
[V:4] z4z2E,2 | 
[V:5] F,4E,2E,2 | 
[V:6] z4z2E,,2 | 
[V:1] z8 | 
[V:2] z8 | 
[V:3] A2c3BG2 | 
[V:4] E,2F,2G,2E,2 | 
[V:5] C,2C,2B,,2B,,2 | 
[V:6] A,,2A,,2E,,2G,,2 | 
[V:1] z4z2G2 | 
[V:2] z4z2E2 | 
[V:3] A4G4 | 
[V:4] E,2D,2E,4 | 
[V:5] A,,2A,,2B,,4 | 
[V:6] F,,2F,,2E,,4 | 
[V:1] G2A2B2G2 | 
[V:2] E2F2D3G, | 
[V:3] E2D2G4 | 
[V:4] z8 | 
[V:5] z8 | 
[V:6] z8 | 
[V:1] G2^F2G4 | 
[V:2] B,2A,2G,A,B,C | 
[V:3] D4z2B2- | 
[V:4] z4z2G,2- | 
[V:5] z8 | 
[V:6] z8 | 
[V:1] z8 | 
[V:2] DB,E4D2 | 
[V:3] B2AGA4 | 
[V:4] G,2F,E,F,4 | 
[V:5] z8 | 
[V:6] z8 | 
[V:1] z2G2G2G2 | 
[V:2] E4z2G2 | 
[V:3] B8- | 
[V:4] E,8- | 
[V:5] B,,4B,,2B,,2- | 
[V:6] E,,4E,,2E,,2 | 
[V:1] G3FE4 | 
[V:2] G2G2G3F | 
[V:3] B8 | 
[V:4] E,4z2B,2 | 
[V:5] B,,2B,,2B,,2E,2- | 
[V:6] E,,2E,,4E,,2 | 
[V:1] z8 | 
[V:2] E4z4 | 
[V:3] z8 | 
[V:4] C2C2B,2A,2 | 
[V:5] E,2C,2E,E,2D, | 
[V:6] A,,2A,,2G,,2F,,2 | 
[V:1] z2B2c2c2 | 
[V:2] z2G2A2A2 | 
[V:3] z2E2A2F2 | 
[V:4] G,4z4 | 
[V:5] E,4z4 | 
[V:6] E,,4z4 | 
[V:1] B2A2G2zG | 
[V:2] G2F2E2G2 | 
[V:3] G2D2G2E2 | 
[V:4] z4B,3C | 
[V:5] z4E,3D, | 
[V:6] z4E,,4 | 
[V:1] A2B2BGA2 | 
[V:2] F2E2G2F2 | 
[V:3] c2e3AA2 | 
[V:4] A,2G,3B,A,2 | 
[V:5] C,2B,,2E,2D,C, | 
[V:6] F,,2G,,2E,,2F,,2 | 
[V:1] B2G2z2G2- | 
[V:2] E2G2F2D2 | 
[V:3] z2G2c2B2 | 
[V:4] G,2B,2A,2G,2 | 
[V:5] B,,3G,,A,,2B,,2- | 
[V:6] G,,2E,,2F,,2G,,2 | 
[V:1] GAB2c2A2 | 
[V:2] G4C4 | 
[V:3] E2e3dcB | 
[V:4] B,4A,2G,F,- | 
[V:5] B,,2G,,2A,,2C,2 | 
[V:6] E,,4z2A,,2 | 
[V:1] B2G2A3F | 
[V:2] z8 | 
[V:3] B4z4 | 
[V:4] F,E,E,4D,2 | 
[V:5] D,2E,2A,,4 | 
[V:6] G,,2E,,2F,,4 | 
[V:1] G2E4DC | 
[V:2] z4z2G2- | 
[V:3] z2B3BB2 | 
[V:4] E,8 | 
[V:5] B,,8 | 
[V:6] E,,8 | 
[V:1] B,8 | 
[V:2] GGG2G2G2- | 
[V:3] B2B4G2 | 
[V:4] E,3E,E,2E,2 | 
[V:5] z4B,,3B,, | 
[V:6] z2E,,3E,,E,,2 | 
[V:1] z8 | 
[V:2] G2E2z2G2- | 
[V:3] z2B2B2B2 | 
[V:4] G,4E,4 | 
[V:5] B,,2B,,2B,,2E,2- | 
[V:6] E,,2G,,4E,,2 | 
[V:1] z8 | 
[V:2] G2G2E3E | 
[V:3] c3B/A/G2A2 | 
[V:4] G,3G,G,2C,2 | 
[V:5] E,2E,4A,,2 | 
[V:6] z2C,3C,C,2 | 
[V:1] z8 | 
[V:2] D2E4D2 | 
[V:3] B4z4 | 
[V:4] G,2G,2F,4 | 
[V:5] D,2B,,2C,2D,2 | 
[V:6] B,,2G,,2A,,2B,,2 | 
[V:1] z2B4B2 | 
[V:2] E8 | 
[V:3] z4z2B2 | 
[V:4] E,8 | 
[V:5] G,,3A,,B,,4 | 
[V:6] E,,8 | 
[V:1] c2B3GA2 | 
[V:2] z8 | 
[V:3] e2d3Bc2 | 
[V:4] z8 | 
[V:5] z8 | 
[V:6] z8 | 
[V:1] B2E2F2E2- | 
[V:2] z8 | 
[V:3] B4z4 | 
[V:4] z2E,2A,2G,2 | 
[V:5] z8 | 
[V:6] z8 | 
[V:1] ECD2EFGA | 
[V:2] z4z2E2 | 
[V:3] z4z2c2 | 
[V:4] G,E,F,2E,4 | 
[V:5] z8 | 
[V:6] z8 | 
[V:1] B2A4^G2 | 
[V:2] F2E3CD2 | 
[V:3] d2c3AB2 | 
[V:4] z8 | 
[V:5] z8 | 
[V:6] z8 | 
[V:1] A2c3cc2- | 
[V:2] E2A3AA2- | 
[V:3] A2e2e2A2 | 
[V:4] A,3A,A,2E,2 | 
[V:5] z2E,2E,2C,2- | 
[V:6] A,,3A,,A,,2A,,2 | 
[V:1] c2c2B2B2 | 
[V:2] A2A2G2G2 | 
[V:3] c3BG2G2 | 
[V:4] A,4B,2G,2 | 
[V:5] C,2F,2D,2E,2 | 
[V:6] F,,4G,,2E,,2 | 
[V:1] A4z2A2 | 
[V:2] E4z2E2 | 
[V:3] c4z2e2- | 
[V:4] z2A,2B,2C2 | 
[V:5] A,,4z2C,2 | 
[V:6] z2A,,2G,,2A,,2 | 
[V:1] G2A2E2G2- | 
[V:2] G2F2G2E2 | 
[V:3] edc3B/A/GA | 
[V:4] G,2C,4C,2 | 
[V:5] B,,2A,,2E,3D,/C,/ | 
[V:6] E,,2F,,2C,3B,,/A,,/ | 
[V:1] GF/E/D4A2- | 
[V:2] G3F/E/D4 | 
[V:3] B4A4- | 
[V:4] G,4F,4 | 
[V:5] B,,2D,4D,2 | 
[V:6] G,,4D,4 | 
[V:1] AGE2F2E2 | 
[V:2] E2C2z2C2 | 
[V:3] A8 | 
[V:4] E,4z2E,2 | 
[V:5] C,2C,2D,2E,2 | 
[V:6] A,,4z2A,,2 | 
[V:1] z4z2c2 | 
[V:2] A,2B,2C2A,B, | 
[V:3] z8 | 
[V:4] F,2G,2C,3D, | 
[V:5] C,2B,,2A,,2A,2 | 
[V:6] A,,2G,,2F,,2F,,2 | 
[V:1] c2B2A2A2 | 
[V:2] CDE2A,4 | 
[V:3] z4z2d2 | 
[V:4] E,4z4 | 
[V:5] G,2E,2F,2F,2 | 
[V:6] E,,4z4 | 
[V:1] G8- | 
[V:2] B,2E4E2 | 
[V:3] e3dc2c2 | 
[V:4] z2C,2G,4 | 
[V:5] E,4z4 | 
[V:6] E,,8- | 
[V:1] G8 ||  
[V:2] E8 ||  
[V:3] B8 ||  
[V:4] G,8 ||  
[V:5] E,8 ||  
[V:6] E,,8 ||  
[V:1]  [K:C] [K:clef=treble][M:2/1]G8 | 
[V:2]  [K:C] [K:clef=treble][M:2/1]E8 | 
[V:3]  [K:C] [K:clef=treble-8][M:2/1]B8 | 
[V:4]  [K:C] [K:clef=bass][M:2/1]G,8 | 
[V:5]  [K:C] [K:clef=bass][M:2/1]E,8 | 
[V:6]  [K:C] [K:clef=bass][M:2/1]E,,8 | 
[V:1] G4G4 | 
[V:2] E4E4 | 
[V:3] B4B4 | 
[V:4] G,4G,4 | 
[V:5] E,4E,4 | 
[V:6] E,,4G,,4 | 
[V:1] A4A4 | 
[V:2] F4D4 | 
[V:3] A4A4 | 
[V:4] C4F,4 | 
[V:5] A,,4A,,4 | 
[V:6] F,,4F,,4 | 
[V:1] G4z2G2- | 
[V:2] E8 | 
[V:3] B4z2e2- | 
[V:4] G,8- | 
[V:5] E,8- | 
[V:6] E,,8- | 
[V:1] G2FEG2FE | 
[V:2] z8 | 
[V:3] e2dce2dc | 
[V:4] G,8 | 
[V:5] E,8 | 
[V:6] E,,8 | 
[V:1] D2E4DC | 
[V:2] z2G4FE | 
[V:3] B2E2z4 | 
[V:4] z4B,4 | 
[V:5] z4G,4 | 
[V:6] z4E,,4- | 
[V:1] E2DCB,2B2 | 
[V:2] G2FED4 | 
[V:3] z4B4 | 
[V:4] B,6G,2 | 
[V:5] G,4G,4 | 
[V:6] E,,4G,,4 | 
[V:1] A2c3BG2 | 
[V:2] F4G4 | 
[V:3] c4G4 | 
[V:4] A,2F,2C4- | 
[V:5] C,3D,E,4 | 
[V:6] F,,4E,,4 | 
[V:1] A2c4BA | 
[V:2] F3EC2D2 | 
[V:3] c4A4 | 
[V:4] C2B,A,C2F,2 | 
[V:5] A,,8 | 
[V:6] F,,8 | 
[V:1] G4z2E2 | 
[V:2] E4z2B,2 | 
[V:3] B8 | 
[V:4] z2G,4G,2 | 
[V:5] E,8 | 
[V:6] E,,8 | 
[V:1] G3FEDF2- | 
[V:2] E3DCB,C2- | 
[V:3] z8 | 
[V:4] E,3F,G,2A,2- | 
[V:5] z8 | 
[V:6] z8 | 
[V:1] F2E4D2 | 
[V:2] C2B,4A,2 | 
[V:3] z8 | 
[V:4] A,G,F,E,F,4 | 
[V:5] z8 | 
[V:6] z8 | 
[V:1] E8 | 
[V:2] B,8 | 
[V:3] z4z2B2 | 
[V:4] E,8 | 
[V:5] z2G,4G,2 | 
[V:6] z2E,,4G,,2 | 
[V:1] z8 | 
[V:2] z8 | 
[V:3] c3BAGB2- | 
[V:4] z8 | 
[V:5] A,2F,4E,2- | 
[V:6] F,,2A,,4G,,2 | 
[V:1] z4z2B2 | 
[V:2] z4z2B,2 | 
[V:3] B2A4^G2 | 
[V:4] z8 | 
[V:5] E,D,C,B,,/A,,/B,,4 | 
[V:6] F,,4E,,4 | 
[V:1] c3BAGB2- | 
[V:2] E3DCB,D2 | 
[V:3] A4z4 | 
[V:4] z2A,4G,2 | 
[V:5] A,,4z4 | 
[V:6] z8 | 
[V:1] B2A4^G2 | 
[V:2] DCB,A,B,4 | 
[V:3] z8 | 
[V:4] A,2F,2E,4 | 
[V:5] z8 | 
[V:6] z4E,,4 | 
[V:1] A4A4 | 
[V:2] A,4F4 | 
[V:3] c8 | 
[V:4] z4A,4 | 
[V:5] A,,8 | 
[V:6] F,,8 | 
[V:1] G4E4 | 
[V:2] D4C4- | 
[V:3] B4A4 | 
[V:4] D,4A,4- | 
[V:5] B,,4C,4- | 
[V:6] G,,4A,,4- | 
[V:1] F4G4 | 
[V:2] C2D2E4 | 
[V:3] c4B2G2 | 
[V:4] A,4G,4 | 
[V:5] C,4G,,4 | 
[V:6] A,,2G,,2E,,4 | 
[V:1] C4CDEF | 
[V:2] A,4A,B,CD | 
[V:3] c8- | 
[V:4] F,4C,4 | 
[V:5] A,,8 | 
[V:6] F,,6E,,2 | 
[V:1] G6E2 | 
[V:2] E6B,2 | 
[V:3] c4B4 | 
[V:4] C,D,E,F,G,4- | 
[V:5] G,,6B,,2 | 
[V:6] E,,8- | 
[V:1] E8- | 
[V:2] B,8- | 
[V:3] G8- | 
[V:4] G,4E,4 | 
[V:5] B,,8- | 
[V:6] E,,8- | 
[V:1] E8 ||  
[V:2] B,8 ||  
[V:3] G8 ||  
[V:4] E,8 ||  
[V:5] B,,8 ||  
[V:6] E,,8 ||  
[V:1]  [K:C] [K:clef=treble][M:2/1]z8 | 
[V:2]  [K:C] [K:clef=treble][M:2/1]z8 | 
[V:3]  [K:C] [K:clef=treble-8][M:2/1]z8 | 
[V:4]  [K:C] [K:clef=bass][M:2/1]B,4G,2G,2 | 
[V:5]  [K:C] [K:clef=bass][M:2/1]E,8 | 
[V:6]  [K:C] [K:clef=bass][M:2/1]z8 | 
[V:1] z8 | 
[V:2] z8 | 
[V:3] z8 | 
[V:4] C4z2C2- | 
[V:5] C,4F,4 | 
[V:6] A,,4F,,2F,,2 | 
[V:1] z4G4 | 
[V:2] z8 | 
[V:3] z8 | 
[V:4] C2C2G,4 | 
[V:5] E,8 | 
[V:6] C,4z2C,2- | 
[V:1] E2E2A4- | 
[V:2] E4C2C2 | 
[V:3] z4c4 | 
[V:4] A,8 | 
[V:5] z2E,2F,4 | 
[V:6] C,2C,2A,,3G,, | 
[V:1] A4G4 | 
[V:2] F4C2E2- | 
[V:3] A2A2c2B2 | 
[V:4] D,4E,4 | 
[V:5] F,4G,4- | 
[V:6] F,,4E,,4 | 
[V:1] E4z4 | 
[V:2] EFG2C2G2- | 
[V:3] G4A2B2 | 
[V:4] z8 | 
[V:5] G,2E,2F,2G,2 | 
[V:6] z8 | 
[V:1] z2E4D2 | 
[V:2] G2E2F2ED | 
[V:3] E2G2F4 | 
[V:4] z8 | 
[V:5] C,4D,4 | 
[V:6] z8 | 
[V:1] E2G4E2 | 
[V:2] C4z2E2- | 
[V:3] E4z4 | 
[V:4] z8 | 
[V:5] A,,2E,4C,2 | 
[V:6] z8 | 
[V:1] F2EDC4 | 
[V:2] E2D2E2G2- | 
[V:3] z8 | 
[V:4] z8 | 
[V:5] D,4A,,2E,2- | 
[V:6] z8 | 
[V:1] z4z2G2- | 
[V:2] G2E2F2ED | 
[V:3] z8 | 
[V:4] z8 | 
[V:5] E,2C,2D,2E,2- | 
[V:6] z8 | 
[V:1] G2E2F2ED | 
[V:2] C4z4 | 
[V:3] z8 | 
[V:4] z8 | 
[V:5] E,2C,2D,2C,B,, | 
[V:6] z8 | 
[V:1] C2G4G2 | 
[V:2] z2E4E2 | 
[V:3] z2B4B2 | 
[V:4] z8 | 
[V:5] A,,2E,4E,2 | 
[V:6] z8 | 
[V:1] E2A4G2 | 
[V:2] G2F4E2- | 
[V:3] c4c4 | 
[V:4] z8 | 
[V:5] C,2F,3E,C,2 | 
[V:6] z8 | 
[V:1] F4E4 | 
[V:2] E2D2E4 | 
[V:3] A4A4 | 
[V:4] z8 | 
[V:5] D,4A,,4 | 
[V:6] z8 | 
[V:1] z8 | 
[V:2] z8 | 
[V:3] B4z2B2 | 
[V:4] E,4G,2G,2 | 
[V:5] z8 | 
[V:6] E,,8 | 
[V:1] z8 | 
[V:2] z8 | 
[V:3] A2c4BA | 
[V:4] A,6E,2- | 
[V:5] z8 | 
[V:6] F,,2F,,2A,,4 | 
[V:1] z8 | 
[V:2] z8 | 
[V:3] B4E4 | 
[V:4] E,2G,4G,2 | 
[V:5] z4z2E,2 | 
[V:6] E,,4z2C,2 | 
[V:1] z8 | 
[V:2] z8 | 
[V:3] z8 | 
[V:4] G,4A,4 | 
[V:5] E,2D,2E,2C,2 | 
[V:6] C,2B,,2C,2A,,2 | 
[V:1] z8 | 
[V:2] z8 | 
[V:3] z8 | 
[V:4] G,4z2G,2- | 
[V:5] D,2E,2A,,2E,2 | 
[V:6] B,,2E,,2C,4 | 
[V:1] z8 | 
[V:2] z8 | 
[V:3] z8 | 
[V:4] G,2G,2E,2F,2- | 
[V:5] D,2E,4C,2- | 
[V:6] B,,2C,4A,,2- | 
[V:1] z8 | 
[V:2] z8 | 
[V:3] z8 | 
[V:4] F,2E,4D,2 | 
[V:5] C,B,,B,,4A,,2 | 
[V:6] A,,G,,F,,E,,F,,4 | 
[V:1] z4z2B2 | 
[V:2] z2G2G2G2 | 
[V:3] z8 | 
[V:4] E,8- | 
[V:5] B,,8 | 
[V:6] E,,8- | 
[V:1] B2B2G2G2 | 
[V:2] E4z2E2 | 
[V:3] z2e2e2e2 | 
[V:4] E,8 | 
[V:5] z8 | 
[V:6] E,,8 | 
[V:1] c4B4 | 
[V:2] A4G4 | 
[V:3] c2c2e4 | 
[V:4] z8 | 
[V:5] z8 | 
[V:6] z8 | 
[V:1] z2B2B2B2- | 
[V:2] z2G2G2G2 | 
[V:3] d4z2d2 | 
[V:4] G,4G,2G,2- | 
[V:5] z8 | 
[V:6] z8 | 
[V:1] B2B2A2B2- | 
[V:2] G4F2G2 | 
[V:3] d2d2c2d2 | 
[V:4] G,2G,2A,2G,2 | 
[V:5] z8 | 
[V:6] z8 | 
[V:1] B2A4^G2 | 
[V:2] D4E4 | 
[V:3] A4B4 | 
[V:4] F,4E,4 | 
[V:5] z8 | 
[V:6] z8 | 
[V:1] A4z4 | 
[V:2] z8 | 
[V:3] A2c2c3B | 
[V:4] z8 | 
[V:5] z2C,2C,2D,2 | 
[V:6] z2A,,2A,,2G,,2 | 
[V:1] z4z2A2 | 
[V:2] z8 | 
[V:3] A2G2F2E2 | 
[V:4] z8 | 
[V:5] E,3D,C,3B,, | 
[V:6] C,3B,,A,,3G,, | 
[V:1] A2G2c3B | 
[V:2] z2E2E2F2- | 
[V:3] D2E2z4 | 
[V:4] z2G,2A,3G, | 
[V:5] A,,2B,,2z4 | 
[V:6] F,,2E,,2z4 | 
[V:1] A2G2F2E2 | 
[V:2] FEC2D2E2 | 
[V:3] z4z2c2 | 
[V:4] F,2E,2D,2A,2 | 
[V:5] z4z2C,2 | 
[V:6] z4z2A,,2 | 
[V:1] z8 | 
[V:2] z8 | 
[V:3] c3BA2G2 | 
[V:4] z8 | 
[V:5] C,2D,2E,3D, | 
[V:6] A,,2G,,2C,3B,, | 
[V:1] z2A2A2G2 | 
[V:2] z4z2E2 | 
[V:3] F2E2D2E2 | 
[V:4] z4z2G,2 | 
[V:5] C,3B,,A,,2B,,2 | 
[V:6] A,,3G,,F,,2E,,2 | 
[V:1] c3BA2G2 | 
[V:2] E2F3EC2 | 
[V:3] z8 | 
[V:4] A,3G,F,2E,2 | 
[V:5] z8 | 
[V:6] z8 | 
[V:1] F2E4E2 | 
[V:2] D2E2C4 | 
[V:3] z4E2E2 | 
[V:4] D,2A,4A,2 | 
[V:5] z4C,4 | 
[V:6] z4A,,4 | 
[V:1] E2A4A2- | 
[V:2] C2F4F2- | 
[V:3] A4c4 | 
[V:4] E,2F,4C,2- | 
[V:5] C,2C,4A,,2- | 
[V:6] A,,2F,,4F,,2- | 
[V:1] A2G4E2 | 
[V:2] F2D4C2 | 
[V:3] c2B2G2c2- | 
[V:4] C,2G,4C,2 | 
[V:5] A,,2D,2B,,2E,2 | 
[V:6] F,,2G,,2G,,2A,,2- | 
[V:1] F2D2E4 | 
[V:2] A,2A,2B,4 | 
[V:3] c2A4G2 | 
[V:4] F,4G,2E,2 | 
[V:5] C,2D,2B,,4 | 
[V:6] A,,2F,,2E,,4 | 
[V:1] z8 | 
[V:2] z8 | 
[V:3] A4c4- | 
[V:4] z2A,4A,2 | 
[V:5] A,,8 | 
[V:6] z8 | 
[V:1] z8 | 
[V:2] z8 | 
[V:3] c4c4 | 
[V:4] A,2A,2E,4 | 
[V:5] z2A,,2C,3D, | 
[V:6] z8 | 
[V:1] z8 | 
[V:2] z8 | 
[V:3] c4c4 | 
[V:4] z2G,3F,E,2- | 
[V:5] E,2E,2C,2G,2- | 
[V:6] z8 | 
[V:1] z8 | 
[V:2] z4z2G2- | 
[V:3] B8- | 
[V:4] E,2D,2E,4 | 
[V:5] G,2F,2G,2E,2- | 
[V:6] z8 | 
[V:1] z8 | 
[V:2] G2F2G2E2- | 
[V:3] B8 | 
[V:4] z4G,4- | 
[V:5] E,2D,2E,4 | 
[V:6] z8 | 
[V:1] z8 | 
[V:2] E2D2E4 | 
[V:3] B4B4 | 
[V:4] G,4G,4 | 
[V:5] z4E,4 | 
[V:6] z8 | 
[V:1] z8 | 
[V:2] C3DE2F2- | 
[V:3] A8 | 
[V:4] E,4C,2F,2- | 
[V:5] A,,3B,,C,2D,2- | 
[V:6] z8 | 
[V:1] z8 | 
[V:2] F2E4D2 | 
[V:3] A8 | 
[V:4] F,2G,2A,4 | 
[V:5] D,2E,2F,4 | 
[V:6] z8 | 
[V:1] G4G2G2 | 
[V:2] E8 | 
[V:3] B4z2B2 | 
[V:4] G,8 | 
[V:5] E,8 | 
[V:6] E,,4E,,2E,,2 | 
[V:1] E2A4G2 | 
[V:2] z2E2F2E2- | 
[V:3] c4A2B2 | 
[V:4] z8 | 
[V:5] z2C,4B,,2 | 
[V:6] A,,4F,,2G,,2 | 
[V:1] FEA4G2 | 
[V:2] E2E2F2E2- | 
[V:3] c4A2B2 | 
[V:4] z8 | 
[V:5] A,,2C,4B,,2 | 
[V:6] A,,4F,,2G,,2 | 
[V:1] FEA2G2EF- | 
[V:2] E2F2D2C2- | 
[V:3] c3AB2c2 | 
[V:4] z8 | 
[V:5] A,,2C,2B,,2A,,2- | 
[V:6] A,,3F,,G,,2A,,2 | 
[V:1] FEE4D2 | 
[V:2] CB,B,2z4 | 
[V:3] A2G2F4 | 
[V:4] z4z2D,2 | 
[V:5] A,,2B,,2C,2D,2 | 
[V:6] F,,2G,,2A,,2B,,2 | 
[V:1] E8 | 
[V:2] z2G2G3F | 
[V:3] E8 | 
[V:4] G,4G,2A,2- | 
[V:5] z8 | 
[V:6] C,3D,E,3D, | 
[V:1] z8 | 
[V:2] E2D2C4 | 
[V:3] z8 | 
[V:4] A,2G,4^F,2 | 
[V:5] z4C,4 | 
[V:6] C,2B,,2A,,4 | 
[V:1] z8 | 
[V:2] B,4z2G2 | 
[V:3] z8 | 
[V:4] G,4z2B,2 | 
[V:5] D,4D,4 | 
[V:6] G,,8 | 
[V:1] z8 | 
[V:2] G2G2C2E2- | 
[V:3] z8 | 
[V:4] B,2CB,A,G,G,2- | 
[V:5] E,2G,3F,E,D, | 
[V:6] z2C,2C,3B,, | 
[V:1] z8 | 
[V:2] E2DCB,2E2- | 
[V:3] z8 | 
[V:4] G,2F,2G,2A,2- | 
[V:5] C,3B,,D,2A,,2 | 
[V:6] A,,4G,,2C,2- | 
[V:1] z4C4 | 
[V:2] E2E3DCA, | 
[V:3] z8 | 
[V:4] A,2G,2E,2F,2 | 
[V:5] E,4C,2A,,2 | 
[V:6] C,2B,,2A,,4 | 
[V:1] D4D4 | 
[V:2] B,8 | 
[V:3] z4B4 | 
[V:4] z2G,4G,2 | 
[V:5] D,4B,,4 | 
[V:6] G,,4G,,4 | 
[V:1] D2B,4A,G, | 
[V:2] z4D4 | 
[V:3] B4B4 | 
[V:4] G,4G,4 | 
[V:5] D,4D,2D,2 | 
[V:6] G,,4G,,4 | 
[V:1] G,8 | 
[V:2] D2D2D2B,2- | 
[V:3] B2G4FE | 
[V:4] D,4G,4 | 
[V:5] D,2D,2B,,4- | 
[V:6] G,,4G,,4- | 
[V:1] z2G2G2G2 | 
[V:2] B,2A,G,G,4 | 
[V:3] E8 | 
[V:4] z2B,2B,2B,2 | 
[V:5] B,,4z2E,2 | 
[V:6] G,,4E,,4 | 
[V:1] A4A4 | 
[V:2] z2C2C2C2 | 
[V:3] z2E2E2E2 | 
[V:4] A,4A,4 | 
[V:5] E,2E,2E,2E,2 | 
[V:6] z2A,,2A,,2A,,2 | 
[V:1] c8 | 
[V:2] C4F4 | 
[V:3] F2F2A4 | 
[V:4] A,8 | 
[V:5] A,,8 | 
[V:6] F,,2F,,2F,,4 | 
[V:1] B8 | 
[V:2] D4G4 | 
[V:3] B6AG | 
[V:4] G,8 | 
[V:5] z4D,4 | 
[V:6] G,,8 | 
[V:1] z2E2F2G2- | 
[V:2] z2C2D2E2- | 
[V:3] G4z4 | 
[V:4] z8 | 
[V:5] E,4D,2C,2- | 
[V:6] z8 | 
[V:1] G2FED2E2- | 
[V:2] E2DCB,2C2- | 
[V:3] z8 | 
[V:4] z8 | 
[V:5] C,D,E,F,G,2C,2 | 
[V:6] z8 | 
[V:1] E2C2D2E2- | 
[V:2] C2E2F2G2- | 
[V:3] z8 | 
[V:4] z8 | 
[V:5] E,4D,2C,2- | 
[V:6] z8 | 
[V:1] E2DCB,2C2- | 
[V:2] G2FED2E2 | 
[V:3] z8 | 
[V:4] z8 | 
[V:5] C,D,E,F,G,2C,2 | 
[V:6] z8 | 
[V:1] C2G2A2B2- | 
[V:2] G4F2G2 | 
[V:3] z2B2c2d2- | 
[V:4] z8 | 
[V:5] z8 | 
[V:6] z4z2G,,2- | 
[V:1] BA2G^F3E | 
[V:2] D8 | 
[V:3] d2cBA4 | 
[V:4] z8 | 
[V:5] z8 | 
[V:6] G,,A,,B,,C,D,2D,2 | 
[V:1] G4z2G2- | 
[V:2] B,4E4- | 
[V:3] G4c4- | 
[V:4] G,6G,2 | 
[V:5] z8 | 
[V:6] E,4E,4 | 
[V:1] G2G2G2G2 | 
[V:2] E2E2E2E2 | 
[V:3] c2c2c4 | 
[V:4] G,4G,4- | 
[V:5] z4E,4 | 
[V:6] C,6C,2 | 
[V:1] E8 | 
[V:2] C4z2G2 | 
[V:3] c4G4 | 
[V:4] G,4E,4 | 
[V:5] E,4E,4 | 
[V:6] C,4C,4 | 
[V:1] z4z2B2 | 
[V:2] G3FE4 | 
[V:3] z2B2B2B2 | 
[V:4] z2G,2G,2G,2 | 
[V:5] D,4z4 | 
[V:6] G,,4z4 | 
[V:1] B2B2B3A | 
[V:2] z2G2G2G2 | 
[V:3] G4z4 | 
[V:4] E,4z4 | 
[V:5] G,2G,2G,2G,2 | 
[V:6] z4z2G,,2 | 
[V:1] G4z2G2- | 
[V:2] G3FE2E2 | 
[V:3] z2B2B2B2 | 
[V:4] z2G,2G,2G,2 | 
[V:5] D,4E,4 | 
[V:6] G,,2G,,2G,,3F,, | 
[V:1] GAB2E2c2 | 
[V:2] G6E2 | 
[V:3] B3AG2A2 | 
[V:4] G,3F,E,4- | 
[V:5] E,4E,4 | 
[V:6] E,,4z2A,,2 | 
[V:1] B3AG4 | 
[V:2] E8 | 
[V:3] B4B4 | 
[V:4] E,8 | 
[V:5] G,4G,F,E,D, | 
[V:6] G,,3F,,E,,4 | 
[V:1] z2A2A2F2 | 
[V:2] z8 | 
[V:3] A8 | 
[V:4] z8 | 
[V:5] C,4D,4 | 
[V:6] F,,8 | 
[V:1] G2E2F2D2 | 
[V:2] z2G2A2F2 | 
[V:3] z8 | 
[V:4] z8 | 
[V:5] E,2C,2D,2F,2 | 
[V:6] E,,4z4 | 
[V:1] E2A4F2 | 
[V:2] G2E2F2D2 | 
[V:3] z8 | 
[V:4] z8 | 
[V:5] E,2C,2D,2F,2 | 
[V:6] z8 | 
[V:1] G2c4A2 | 
[V:2] E2A4F2 | 
[V:3] z8 | 
[V:4] z2A,4A,2 | 
[V:5] E,2A,,2z4 | 
[V:6] z8 | 
[V:1] B3GA2F2 | 
[V:2] G2E2F2D2 | 
[V:3] z8 | 
[V:4] G,2G,2F,4 | 
[V:5] z8 | 
[V:6] z8 | 
[V:1] G2E4D2 | 
[V:2] E2G2F4 | 
[V:3] z4A4 | 
[V:4] E,2C,2D,4 | 
[V:5] z8 | 
[V:6] z8 | 
[V:1] E4z4 | 
[V:2] E8 | 
[V:3] B4B4 | 
[V:4] G,6F,E, | 
[V:5] E,6D,C, | 
[V:6] z2E,,2E,,3F,, | 
[V:1] z8 | 
[V:2] z8 | 
[V:3] G2c4G2- | 
[V:4] E,4z4 | 
[V:5] B,,2A,,2E,3D, | 
[V:6] G,,2A,,4E,,2- | 
[V:1] z8 | 
[V:2] z8 | 
[V:3] GAB2c2B2- | 
[V:4] z8 | 
[V:5] C,2B,,2A,,2E,2- | 
[V:6] E,,F,,G,,2A,,2E,,2- | 
[V:1] z8 | 
[V:2] z8 | 
[V:3] B2A2B2c2 | 
[V:4] z8 | 
[V:5] E,D,C,2B,,2A,,2- | 
[V:6] E,,2A,,2G,,2A,,2 | 
[V:1] z8 | 
[V:2] z8 | 
[V:3] A4G4 | 
[V:4] z4z2E,2 | 
[V:5] A,,B,,C,D,E,2C,2 | 
[V:6] F,,4E,,4 | 
[V:1] z8 | 
[V:2] z2A,3B,CD | 
[V:3] z8 | 
[V:4] F,2D,4G,2 | 
[V:5] D,2F,4E,2 | 
[V:6] z8 | 
[V:1] z8 | 
[V:2] E2C2D2F2- | 
[V:3] z8 | 
[V:4] E,2A,2D,4 | 
[V:5] z8 | 
[V:6] z8 | 
[V:1] z8 | 
[V:2] F2E2z2E2 | 
[V:3] z2E3FGA | 
[V:4] A,3E,E,4 | 
[V:5] z8 | 
[V:6] A,,4G,,2E,,2- | 
[V:1] z4z2E2- | 
[V:2] G2E2A4 | 
[V:3] B2G2A2c2- | 
[V:4] z2E,2F,2E,2 | 
[V:5] z8 | 
[V:6] E,,2G,,2F,,2A,,2 | 
[V:1] EFGAB2G2 | 
[V:2] G2E4G2 | 
[V:3] c2B2z4 | 
[V:4] G,8 | 
[V:5] E,8 | 
[V:6] E,,8 | 
[V:1] A2c4B2 | 
[V:2] F2A2G2E2 | 
[V:3] z8 | 
[V:4] C,4G,4 | 
[V:5] A,,4E,4- | 
[V:6] F,,4E,,4 | 
[V:1] z8 | 
[V:2] z2E2E3F | 
[V:3] z2E3FGA | 
[V:4] C,3D,E,4 | 
[V:5] E,2D,C,B,,4- | 
[V:6] A,,4G,,2E,,2- | 
[V:1] z4z2E2- | 
[V:2] G2E2A4 | 
[V:3] B2G2A2c2- | 
[V:4] z2E,2F,2E,2 | 
[V:5] B,,4A,,4 | 
[V:6] E,,2G,,2F,,2A,,2 | 
[V:1] EFGAB2G2 | 
[V:2] G2E4G2 | 
[V:3] c2B4B2 | 
[V:4] G,8 | 
[V:5] E,4E,4 | 
[V:6] E,,4z2E,,2 | 
[V:1] A2c4B2- | 
[V:2] F2A2G3F | 
[V:3] A3Bcde2- | 
[V:4] z4G,4- | 
[V:5] C,3D,E,4- | 
[V:6] F,,4E,,3F,, | 
[V:1] B2A4^G2 | 
[V:2] E8 | 
[V:3] edc2B4 | 
[V:4] G,2C,2G,4 | 
[V:5] E,4E,4 | 
[V:6] G,,2A,,2E,,4 | 
[V:1] [M:3/1]A4z4A4 | 
[V:2] [M:3/1]E12 | 
[V:3] [M:3/1]A12 | 
[V:4] [M:3/1]C8C4 | 
[V:5] [M:3/1]z12 | 
[V:6] [M:3/1]A,,6B,,2C,2D,2 | 
[V:1] G6E2F4 | 
[V:2] z4z4A4 | 
[V:3] z12 | 
[V:4] B,4C4D4 | 
[V:5] E,4G,4F,4 | 
[V:6] E,8D,4 | 
[V:1] E4G4A4 | 
[V:2] G6E2F4 | 
[V:3] z4z4A4 | 
[V:4] B,8z4 | 
[V:5] G,4E,4D,4 | 
[V:6] E,8z4 | 
[V:1] G4E4F4 | 
[V:2] E4G4F4 | 
[V:3] B6c2d4 | 
[V:4] E,8A,4 | 
[V:5] G,8z4 | 
[V:6] E,,8D,,4 | 
[V:1] G4B4A4 | 
[V:2] E4G4F4 | 
[V:3] B4G4A4 | 
[V:4] G,4E,4F,4 | 
[V:5] E,6D,2C,4 | 
[V:6] E,,8z4 | 
[V:1] G6A2B4 | 
[V:2] E4G8 | 
[V:3] B8G4 | 
[V:4] G,6F,2D,2E,2 | 
[V:5] B,,8B,,4 | 
[V:6] E,,6F,,2G,,4 | 
[V:1] A4c8 | 
[V:2] A8A4 | 
[V:3] z4c6A2 | 
[V:4] F,8F,4 | 
[V:5] C,8A,,4 | 
[V:6] F,,8F,,4 | 
[V:1] B6G2A4 | 
[V:2] G8F4 | 
[V:3] d4G4c4 | 
[V:4] D,4E,4C,4 | 
[V:5] z4E,4A,,4 | 
[V:6] G,,4E,,4F,,4 | 
[V:1] G4E4A4 | 
[V:2] E4C4F4 | 
[V:3] B4A4c4 | 
[V:4] G,4z4C,4 | 
[V:5] B,,4C,4A,,4 | 
[V:6] G,,4A,,4F,,4 | 
[V:1] G4E4A4 | 
[V:2] E8D4 | 
[V:3] B4A4c4- | 
[V:4] G,6E,2F,4 | 
[V:5] B,,4C,4A,,4 | 
[V:6] G,,4A,,4F,,4 | 
[V:1] G4E4F4 | 
[V:2] E8z4 | 
[V:3] c2B2G4F4 | 
[V:4] G,4C,4z4 | 
[V:5] E,6C,2D,4 | 
[V:6] E,,8z4 | 
[V:1] E8D4 | 
[V:2] z12 | 
[V:3] G2E4G2F4 | 
[V:4] C8A,4 | 
[V:5] E,4C,4D,4 | 
[V:6] z12 | 
[V:1] E12- | 
[V:2] E6D2C2B,2 | 
[V:3] E12- | 
[V:4] B,8G,4- | 
[V:5] G,6F,2E,4 | 
[V:6] E,,8G,,4- | 
[V:1] E12 | 
[V:2] B,8A,4 | 
[V:3] E12 | 
[V:4] G,4E,4C,4 | 
[V:5] D,4C,6B,,2 | 
[V:6] G,,4A,,8 | 
[V:1] E12 |]  
[V:2] B,12 |]  
[V:3] E12 |]  
[V:4] G,12 |]  
[V:5] B,,12 |]  
[V:6] E,,12 |]  



